X: 10043
M: C
L: 1/8
K: Bb
"Slowly"d |\
f>gf<d B>cd>B | ((3ege) ((3dfd) {d}c>Bc<d | f>gf<d B>cd>c | B>GF>D B,<BB>d |
f>gf<d B>cd>B | ((3ege) ((3dfd) c>Bcd | B<Fd<B f<db<g | f>dc>d B2-B |]


